docs/public/static/images/examples/refine.svg

<svg fill="none" height="40" viewBox="0 0 40 40" width="40" xmlns="http://www.w3.org/2000/svg" xmlns:xlink="http://www.w3.org/1999/xlink"><clipPath id="a"><path d="m0 0h40v40h-40z"/></clipPath><g clip-path="url(#a)"><path d="m20 40c5.3043 0 10.3914-2.1071 14.1421-5.8579 3.7508-3.7507 5.8579-8.8378 5.8579-14.1421s-2.1071-10.39141-5.8579-14.14214c-3.7507-3.75072-8.8378-5.85786-14.1421-5.85786s-10.39141 2.10714-14.14214 5.85786c-3.75072 3.75073-5.85786 8.83784-5.85786 14.14214s2.10714 10.3914 5.85786 14.1421c3.75073 3.7508 8.83784 5.8579 14.14214 5.8579z" fill="#14141f"/><g fill="#fff"><path d="m20.0001 18c1.1046 0 2.0001-.8954 2.0001-2s-.8955-2-2.0001-2-2 .8954-2 2 .8954 2 2 2z"/><path clip-rule="evenodd" d="m18.2112 8.42229c1.126-.56305 2.4516-.56305 3.5776 0l8 4.00001c1.3552.6776 2.2112 2.0626 2.2112 3.5777v8c0 1.5151-.856 2.9002-2.2112 3.5777l-8 4c-1.126.5631-2.4516.5631-3.5776 0l-8.0001-4c-1.35509-.6775-2.2111-2.0626-2.2111-3.5777v-8c0-1.5151.85601-2.9001 2.2111-3.5777zm1.7888 3.57771c-2.2091 0-4 1.7908-4 4v8c0 2.2092 1.7909 4 4 4s4-1.7908 4-4v-8c0-2.2092-1.7909-4-4-4z" fill-rule="evenodd"/></g></g></svg>

<svg width="40" height="40" viewBox="0 0 40 40" fill="none" xmlns="http://www.w3.org/2000/svg">
<g clip-path="url(#clip0_3523_2)">
<path d="M20 40C25.3043 40 30.3914 37.8929 34.1421 34.1421C37.8929 30.3914 40 25.3043 40 20C40 14.6957 37.8929 9.60859 34.1421 5.85786C30.3914 2.10714 25.3043 0 20 0C14.6957 0 9.60859 2.10714 5.85786 5.85786C2.10714 9.60859 0 14.6957 0 20C0 25.3043 2.10714 30.3914 5.85786 34.1421C9.60859 37.8929 14.6957 40 20 40Z" fill="#14141F"/>
<path d="M20.0001 18C21.1047 18 22.0002 17.1046 22.0002 16C22.0002 14.8954 21.1047 14 20.0001 14C18.8955 14 18.0001 14.8954 18.0001 16C18.0001 17.1046 18.8955 18 20.0001 18Z" fill="white"/>
<path fill-rule="evenodd" clip-rule="evenodd" d="M18.2112 8.42229C19.3372 7.85924 20.6628 7.85924 21.7888 8.42229L29.7888 12.4223C31.144 13.0999 32 14.4849 32 16V24C32 25.5151 31.144 26.9002 29.7888 27.5777L21.7888 31.5777C20.6628 32.1408 19.3372 32.1408 18.2112 31.5777L10.2111 27.5777C8.85601 26.9002 8 25.5151 8 24V16C8 14.4849 8.85601 13.0999 10.2111 12.4223L18.2112 8.42229ZM20 12C17.7909 12 16 13.7908 16 16V24C16 26.2092 17.7909 28 20 28C22.2091 28 24 26.2092 24 24V16C24 13.7908 22.2091 12 20 12Z" fill="white"/>
</g>
<defs>
<clipPath id="clip0_3523_2">
<rect width="40" height="40" fill="white"/>
</clipPath>
</defs>
</svg>
